X: 36655
T: Shapron, The
R: reel
M: 4/4
K: Dmajor
D2 F>^E F2 A>^G|(3ABA d2 d2 c>d|B2 (3ABA G2 (3FGF|E>^DE>F (3EFG F>E|
D2 F2 F2 A>^G|A2 d>c d3 e|f>af>d (3efg e>c|A>dd>c d2:|
a2 f2 d>ba>^g|a2 d2 (3fgf e>f|g2 e2 (3fgf (3fed|e>^d (3=dcB A2 (3efg|
(3aba f>d b2 a^g|a2 d2 d3 e|(3fga f>d e>g (3gfe|d2 A2 D2:|

